!!!!SEGMENT: Snf0234-O_magnae_admirationis--Zwickau_1676_1788.krn
!!!id: Snf0234
!!!AGN: Motet
!!!SCT: Edwards, Gasch, Tröster (2022)
!!!voices: 3
!!!COM: Ludwig Senfl
!!!OTL: O magnae admirationis (Zwickau 1676-1788)
**kern	**text	**kern	**text	**kern	**text
*part3	*part3	*part2	*part2	*part1	*part1
*staff3	*staff3	*staff2	*staff2	*staff1	*staff1
*I"Bassus	*	*I"Tenor	*	*I"Superius	*
*I'B	*	*I'T	*	*I'S	*
*clefF4	*	*clefGv2	*	*clefG2	*
*	*	*	*	*	*
*k[]	*	*k[]	*	*k[]	*
*	*	*	*	*	*
*M2/1	*	*M2/1	*	*M2/1	*
*met(C|)	*	*met(C|)	*	*met(C|)	*
!!section: Prima pars: O magnae admirationis
!!!OMD: Prima pars: O magnae admirationis
!	!	!	!	!LO:TX:a:t=Altus not extant	!
0r	.	0r	.	0r	.
=1	=1	=1	=1	=1	=1
0r	.	0r	.	0g	O
=2	=2	=2	=2	=2	=2
0r	.	0r	.	1cc	ma-
.	.	.	.	1b	.
=3	=3	=3	=3	=3	=3
0r	.	0r	.	0a	-gnae
=4	=4	=4	=4	=4	=4
0r	.	0r	.	2r	.
.	.	.	.	1cc	ad-
.	.	.	.	2a	-mi-
=5	=5	=5	=5	=5	=5
0r	.	0r	.	1b	-ra-
.	.	.	.	1cc	-ti-
=6	=6	=6	=6	=6	=6
0r	.	0G	O	1dd	-o-
.	.	.	.	1dd	-nis
=7	=7	=7	=7	=7	=7
0r	.	1c	ma-	1ee	gra-
.	.	1B	.	[1dd	.
=8	=8	=8	=8	=8	=8
0r	.	0A	-gnae	2dd]	.
.	.	.	.	4cc	.
.	.	.	.	4b	.
.	.	.	.	2cc	.
.	.	.	.	2cc	-ti-
=9	=9	=9	=9	=9	=9
0G	O	0r	.	1dd	-a,
.	.	.	.	2r	.
.	.	.	.	2dd	o
=10	=10	=10	=10	=10	=10
1c	ma-	0r	.	2ee	ma-
.	.	.	.	2cc	.
1B	.	.	.	2dd	.
.	.	.	.	2b	.
=11	=11	=11	=11	=11	=11
0A	-gnae	1r	.	1cc	.
.	.	1c	ad-	[1a	-gnae
=12	=12	=12	=12	=12	=12
1F	ad-	1A	-mi-	1a]	.
1D	-mi-	1B	-ra-	1r	.
=13	=13	=13	=13	=13	=13
1E	-ra-	1c	-ti-	1cc	ad-
1F	-ti-	1d	-o-	1a	-mi-
=14	=14	=14	=14	=14	=14
2G	-o-	2d	-nis	2b	-ra-
2G	-nis	2g	gra-	2b	-ti-
1A	gra-	2e	.	1cc	-o-
.	.	2c	-ti-	.	.
=15	=15	=15	=15	=15	=15
2G	.	1d	-a!	1b	-nis
1G	-ti-	.	.	.	.
.	.	1r	.	2r	.
2F	.	.	.	2cc	gra-
=16	=16	=16	=16	=16	=16
1G	-a!	1r	.	4b	.
.	.	.	.	4a	.
.	.	.	.	2g	.
1r	.	1d	O	2a	.
.	.	.	.	2a	-ti-
=17	=17	=17	=17	=17	=17
1G	O	1d	in-	0b	-a!
1G	in-	1e	-e-	.	.
=18	=18	=18	=18	=18	=18
1A	-e-	1f	-nar-	1r	.
1B	-nar-	1g	-ra-	1g	O
=19	=19	=19	=19	=19	=19
1c	-ra-	2e	.	1g	in-
.	.	1g	.	.	.
1A	-bi-	.	.	1a	-e-
.	.	2f#i	-bi-	.	.
=20	=20	=20	=20	=20	=20
1G	-lis,	1g	-lis,	1b	-nar-
1r	.	1r	.	1cc	-ra-
=21	=21	=21	=21	=21	=21
0r	.	0r	.	2a	.
.	.	.	.	1cc	.
.	.	.	.	2b	-bi-
=22	=22	=22	=22	=22	=22
1r	.	1e	o	[0cc	-lis,
1A	o	1e	in-	.	.
=23	=23	=23	=23	=23	=23
1A	in-	1f	-e-	1cc]	.
1B	-e-	1g	.	1r	.
=24	=24	=24	=24	=24	=24
1c	-nar-	1e	-nar-	1a	o
1d	-ra-	1f	-ra-	1a	in-
=25	=25	=25	=25	=25	=25
1B	-bi-	1d	-bi-	1b	-e-
1A	-lis,	1c	-lis,	1cc	-nar-
=26	=26	=26	=26	=26	=26
0r	.	0r	.	1dd	-ra-
.	.	.	.	2b	.
.	.	.	.	[2dd	.
=27	=27	=27	=27	=27	=27
1r	.	1A	o	2dd]	.
.	.	.	.	2cc#i	-bi-
1D	o	1A	in-	[1dd	-lis,
=28	=28	=28	=28	=28	=28
1D	in-	1B	-e-	1dd]	.
1E	-e-	1c	-nar-	2r	.
.	.	.	.	2g	in-
=29	=29	=29	=29	=29	=29
1F	-nar-	1d	-ra-	2f	-e-
.	.	.	.	2a	-nar-
2G	-ra-	1B	-bi-	2a	-ra-
2G	-bi-	.	.	2g	-bi-
=30	=30	=30	=30	=30	=30
1D	-lis	[0A	-lis	0a	-lis
2r	.	.	.	.	.
2F	su-	.	.	.	.
=31	=31	=31	=31	=31	=31
1F	-a-	1A]	.	2r	.
.	.	.	.	2cc	su-
1D	-vi-	1r	.	2dd	-a-
.	.	.	.	2dd	-vi-
=32	=32	=32	=32	=32	=32
1C	.	1r	.	2ee	-tas,
.	.	.	.	2cc	su-
1C	-tas,	2r	.	2.cc	-a-
.	.	2c	su-	.	.
.	.	.	.	4b	.
=33	=33	=33	=33	=33	=33
2r	.	1c	-a-	4a	.
.	.	.	.	4g	.
2C	su-	.	.	1g	.
2D	-a-	1A	-vi-	.	.
2D	-vi-	.	.	2f#i	-vi-
=34	=34	=34	=34	=34	=34
[0E	-tas,	1G	.	[0g	-tas!
.	.	[1G	-tas!	.	.
=35	=35	=35	=35	=35	=35
1E]	.	0G]	.	1g]	.
2r	.	.	.	1r	.
2G	su-	.	.	.	.
=36	=36	=36	=36	=36	=36
1G	-a-	0r	.	0r	.
1E	-vi-	.	.	.	.
=37	=37	=37	=37	=37	=37
1D	.	0r	.	1r	.
2D	-tas!	.	.	1dd	O
2G	O	.	.	.	.
=38	=38	=38	=38	=38	=38
1F	in-	0r	.	[0ff	in-
[1D	.	.	.	.	.
=39	=39	=39	=39	=39	=39
2D]	.	0r	.	1ff]	.
2D	-ef-	.	.	.	.
2G	-fa-	.	.	[1dd	.
2G	-bi-	.	.	.	.
=40	=40	=40	=40	=40	=40
1G	-le,	1r	.	0dd]	.
1r	.	1d	O	.	.
=41	=41	=41	=41	=41	=41
1r	.	[0f	in-	1cc	-ef-
2r	.	.	.	1a	.
2F	o	.	.	.	.
=42	=42	=42	=42	=42	=42
2F	in-	1f]	.	1cc	-fa-
2F	-ef-	.	.	.	.
2G	-fa-	[1d	.	1b	-bi-
2G	-bi-	.	.	.	.
=43	=43	=43	=43	=43	=43
0D	-le,	0d]	.	1a	-le,
.	.	.	.	2r	.
.	.	.	.	2dd	o
=44	=44	=44	=44	=44	=44
1r	.	1c	-ef-	1ee	in-
2r	.	1A	.	2ee	-ef-
2F	[o	.	.	[2cc	-fa-
=45	=45	=45	=45	=45	=45
2F	in-	1c	-fa-	4cc]	.
.	.	.	.	4b	.
2F	-ef-	.	.	1a	.
2G	-fa-	1B	-bi-	.	.
2G	-bi-	.	.	2g	-bi-
=46	=46	=46	=46	=46	=46
1D	-le]	1A	-le	0a	-le
2r	.	2r	.	.	.
2D	ma-	[2d	ma-	.	.
=47	=47	=47	=47	=47	=47
2D	-gnum-	2d]	.	2r	.
2D	-que	2d	-gnum-	1dd	ma-
2G	sa-	1B	-que	.	.
2G	-cra-	.	.	2dd	-gnum-
=48	=48	=48	=48	=48	=48
1G	-men-	1d	sa-	1b	-que
4C	-tum!	1c	-cra-	1r	.
4D	.	.	.	.	.
4E	.	.	.	.	.
4F	.	.	.	.	.
=49	=49	=49	=49	=49	=49
1G	.	1B	-men-	1dd	sa-
1r	.	1A	.	1cc	-cra-
=50	=50	=50	=50	=50	=50
1r	.	1G	-tum!	1b	-men-
1D	I-	1r	.	1a	.
=51	=51	=51	=51	=51	=51
1E	-psa	0r	.	[0g	-tum!
1G	Vir-	.	.	.	.
=52	=52	=52	=52	=52	=52
0E	-go,	1r	.	1g]	.
.	.	1G	I-	1r	.
=53	=53	=53	=53	=53	=53
0r	.	1A	-psa	1r	.
.	.	1c	Vir-	1g	I-
=54	=54	=54	=54	=54	=54
1r	.	1A	-go,	1a	-psa
1C	i-	1r	.	1cc	Vir-
=55	=55	=55	=55	=55	=55
1D	-psa	1r	.	[0a	-go
1F	Vir-	1c	i-	.	.
=56	=56	=56	=56	=56	=56
0D	-go	1d	-psa	0a]	.
.	.	1f	Vir-	.	.
=57	=57	=57	=57	=57	=57
2r	.	1d	-go	1r	.
2D	Ma-	.	.	.	.
2.D	-ri-	1d	Ma-	2r	.
.	.	.	.	[2a	Ma-
4E	.	.	.	.	.
=58	=58	=58	=58	=58	=58
2F	.	2c	-ri-	2a]	.
2G	.	2B	.	1g	-ri-
1D	.	1A	.	.	.
.	.	.	.	2f#i	.
=59	=59	=59	=59	=59	=59
1G	-a,	[0G	-a,	0g	-a,
1r	.	.	.	.	.
=60	=60	=60	=60	=60	=60
0r	.	0G]	.	1r	.
.	.	.	.	1dd	Ma-
=61	=61	=61	=61	=61	=61
0r	.	0r	.	1a	-ter
.	.	.	.	1cc	Do-
=62	=62	=62	=62	=62	=62
1G	Ma-	1r	.	1b	-mi-
1D	-ter	1d	Ma-	[1a	-ni,
=63	=63	=63	=63	=63	=63
1F	Do-	1A	-ter	1a]	.
1E	-mi-	1c	Do-	1r	.
=64	=64	=64	=64	=64	=64
1D	-ni,	1B	-mi-	1r	.
1r	.	1A	-ni,	1cc	Ma-
=65	=65	=65	=65	=65	=65
0r	.	1c	Ma-	1g	-ter
.	.	1G	-ter	2.b	Do-
.	.	.	.	4cc	.
=66	=66	=66	=66	=66	=66
0r	.	1B	Do-	1dd	.
.	.	1A	-mi-	2cc	.
.	.	.	.	2a	.
=67	=67	=67	=67	=67	=67
0r	.	[0G	-ni,	1.b	.
.	.	.	.	4a	.
.	.	.	.	4g	.
=68	=68	=68	=68	=68	=68
2r	.	1G]	.	2.b	.
1G	e-	.	.	.	.
.	.	.	.	4cc	.
.	.	1r	.	2dd	.
2G	-ius	.	.	2b	-mi-
=69	=69	=69	=69	=69	=69
1A	an-	1r	.	1cc	-ni,
2.G	-cil-	2r	.	2r	.
.	.	[2g	e-	[2gg	e-
4F	.	.	.	.	.
=70	=70	=70	=70	=70	=70
1E	.	2g]	.	2gg]	.
.	.	2g	-ius	2gg	-ius
2D	.	1a	an-	2ff	an-
2AA	.	.	.	[2ee	-cil-
=71	=71	=71	=71	=71	=71
2C	.	2g	-cil-	2ee]	.
2D	.	2f	.	1dd	.
1AA	.	1e	.	.	.
.	.	.	.	2cc#i	.
=72	=72	=72	=72	=72	=72
[0D	-la,	[0d	-la,	[0dd	-la,
=73	=73	=73	=73	=73	=73
0D]	.	0d]	.	1dd]	.
.	.	.	.	1r	.
=74	=74	=74	=74	=74	=74
0r	.	0r	.	1ee	pla-
.	.	.	.	1cc	-sma-
=75	=75	=75	=75	=75	=75
1r	.	0r	.	1b	-ti-
1A	pla-	.	.	1cc	-o
=76	=76	=76	=76	=76	=76
1F	-sma-	1r	.	1a	e-
1E	-ti-	1e	pla-	1g	-ius,
=77	=77	=77	=77	=77	=77
1F	-o	1c	-sma-	0r	.
1D	e-	1B	-ti-	.	.
=78	=78	=78	=78	=78	=78
1C	-ius,	1c	-o	1ee	pla-
1r	.	1A	e-	1cc	-sma-
=79	=79	=79	=79	=79	=79
1r	.	0G	-ius,	1b	-ti-
1C	quae	.	.	1cc	-o
=80	=80	=80	=80	=80	=80
1D	ge-	1r	.	1a	e-
1E	.	1G	quae	1g	-ius,
=81	=81	=81	=81	=81	=81
2.F	.	1A	ge-	0r	.
4E	.	.	.	.	.
2D	.	1B	.	.	.
2D	-nu-	.	.	.	.
=82	=82	=82	=82	=82	=82
1C	-it,	2.c	.	1g	quae
.	.	4B	.	.	.
1F	.	2A	.	1a	ge-
.	.	2A	-nu-	.	.
=83	=83	=83	=83	=83	=83
1r	.	2G	-it,	1b	.
.	.	2G	quae	.	.
2r	.	1A	ge-	1cc	.
2F	quae	.	.	.	.
=84	=84	=84	=84	=84	=84
2G	ge-	1B	.	1b	.
2G	-nu-	.	.	.	.
2F	-it,	1c	.	1a	.
2F	quae	.	.	.	.
=85	=85	=85	=85	=85	=85
1G	ge-	1B	.	2g	.
.	.	.	.	1g	-nu-
1D	-nu-	1A	-nu-	.	.
.	.	.	.	2f#i	.
=86	=86	=86	=86	=86	=86
0E	-it,	1G	.	[0g	-it,
.	.	[1G	-it,	.	.
=87	=87	=87	=87	=87	=87
2r	.	1G]	.	1g]	.
2C	quae	.	.	.	.
2D	ge-	1r	.	2r	.
2E	-nu-	.	.	2g	quae
=88	=88	=88	=88	=88	=88
2F	-it,	2r	.	2a	ge-
2E	quae	2G	quae	2b	.
2A	ge-	2A	ge-	2cc	.
2G	.	2B	.	2b	.
=89	=89	=89	=89	=89	=89
2F	.	2c	.	2a	.
2G	-nu-	2B	.	1g	.
1D	-it,	1A	-nu-	.	.
.	.	.	.	2f#i	-nu-
=90	=90	=90	=90	=90	=90
1r	.	[0Gl	-it.	[0gl	-it.
2r	.	.	.	.	.
2G	quae	.	.	.	.
=91	=91	=91	=91	=91	=91
2E	ge-	0G_	.	0g_	.
2E	-nu-	.	.	.	.
4C	-it.	.	.	.	.
4D	.	.	.	.	.
4E	.	.	.	.	.
4F	.	.	.	.	.
=92	=92	=92	=92	=92	=92
00G	.	00G]	.	00g]	.
=93||	=93||	=93||	=93||	=93||	=93||
*M2/1	*	*M2/1	*	*M2/1	*
*met(C|)	*	*met(C|)	*	*met(C|)	*
!!section: Secunda pars: Quis unquam ista
!!!OMD: Secunda pars: Quis unquam ista
0r	.	0r	.	0dd	-Quis
=94	=94	=94	=94	=94	=94
0r	.	0r	.	1ee	un-
.	.	.	.	1dd	-quam
=95	=95	=95	=95	=95	=95
0r	.	0r	.	1cc	i-
.	.	.	.	1b	-sta
=96	=96	=96	=96	=96	=96
0r	.	0r	.	2cc	au-
.	.	.	.	1dd	-di-
.	.	.	.	2cc	.
=97	=97	=97	=97	=97	=97
0r	.	0d	Quis	1dd	-vit,
.	.	.	.	2r	.
.	.	.	.	2dd	au-
=98	=98	=98	=98	=98	=98
0G	Quis	1e	un-	2b	-di-
.	.	.	.	1cc	.
.	.	1d	-quam	.	.
.	.	.	.	2b	.
=99	=99	=99	=99	=99	=99
1A	un-	1c	i-	2cc	.
.	.	.	.	2a	.
1G	-quam	1B	-sta	1b	.
=100	=100	=100	=100	=100	=100
1F	i-	2c	au-	1a	-vit,
.	.	1d	-di-	.	.
1E	-sta	.	.	2r	.
.	.	2c	.	2cc	au-
=101	=101	=101	=101	=101	=101
2F	au-	[0d	-vit?	2a	-di-
1G	-di-	.	.	1b	.
2F	.	.	.	2a	.
=102	=102	=102	=102	=102	=102
1G	-vit?	0d]	.	2b	.
.	.	.	.	2g	.
1r	.	.	.	1a	.
=103	=103	=103	=103	=103	=103
0r	.	1e	Quis	2g	-vit?
.	.	.	.	2cc	Quis
.	.	1f	vi-	2a	vi-
.	.	.	.	2a	-dit
=104	=104	=104	=104	=104	=104
1r	.	1d	-dit	2b	ta-
.	.	.	.	2b	-li-
1E	Quis	[1c	ta-	2e	-a,
.	.	.	.	2ee	quis
=105	=105	=105	=105	=105	=105
1F	vi-	1c]	.	2cc	vi-
.	.	.	.	2cc	-dit
1D	-dit	1B	-li-	2dd	ta-
.	.	.	.	2dd	-li-
=106	=106	=106	=106	=106	=106
0C	ta-	0c	-a,	2g	-a,
.	.	.	.	2g	quis
.	.	.	.	2g	vi-
.	.	.	.	2a	-dit
=107	=107	=107	=107	=107	=107
1BB	-li-	0r	.	2b	ta-
.	.	.	.	2b	-li-
[1C	-a,	.	.	1e	-a,
=108	=108	=108	=108	=108	=108
1C]	.	0r	.	1r	.
2r	.	.	.	1ee	quis
2c	quis	.	.	.	.
=109	=109	=109	=109	=109	=109
1d	vi-	0r	.	1ff	vi-
1B	-dit	.	.	1dd	-dit
=110	=110	=110	=110	=110	=110
2c	ta-	1e	quis	0cc	ta-
2c	-li-	.	.	.	.
1F	-a,	1f	vi-	.	.
=111	=111	=111	=111	=111	=111
2r	.	1d	-dit	1b	-li-
2G	quis	.	.	.	.
1A	vi-	[1c	ta-	[1cc	-a,
=112	=112	=112	=112	=112	=112
1F	-dit	1c]	.	1cc]	.
2G	ta-	1B	-li-	2r	.
2G	-li-	.	.	[2g	ta-
=113	=113	=113	=113	=113	=113
2C	-a,	[0c	-a?	2g]	.
2F	ta-	.	.	1a	.
1C	-li-	.	.	.	.
.	.	.	.	2g	-li-
=114	=114	=114	=114	=114	=114
[0F	-a?	0c]	.	1a	-a?
.	.	.	.	1r	.
=115	=115	=115	=115	=115	=115
0F]	.	1r	.	1a	Quis
.	.	1A	Quis	1f	hoc
=116	=116	=116	=116	=116	=116
0r	.	1F	hoc	1a	ex-
.	.	1A	ex-	1cc	-co-
=117	=117	=117	=117	=117	=117
0r	.	1c	-co-	1a	-gi-
.	.	1A	-gi-	1cc	-ta-
=118	=118	=118	=118	=118	=118
1r	.	1c	-ta-	1g	-re,
1E	Quis	1G	-re,	1r	.
=119	=119	=119	=119	=119	=119
1C	hoc	2r	.	0r	.
.	.	2c	ex-	.	.
1E	ex-	2B	-co-	.	.
.	.	2c	-gi-	.	.
=120	=120	=120	=120	=120	=120
1G	-co-	2B	-ta-	0r	.
.	.	1e	.	.	.
1E	-gi-	.	.	.	.
.	.	4d	.	.	.
.	.	4c	.	.	.
=121	=121	=121	=121	=121	=121
1G	-ta-	2.B	.	1r	.
.	.	4c	.	.	.
[1D	-re,	1d	.	1a	quis
=122	=122	=122	=122	=122	=122
1D]	.	1A	-re	1f	hoc
1r	.	2r	.	1a	ex-
.	.	2d	po-	.	.
=123	=123	=123	=123	=123	=123
1A	quis	2e	-tu-	1cc	-co-
.	.	1f	.	.	.
1F	hoc	.	.	1a	-gi-
.	.	4e	.	.	.
.	.	4d	.	.	.
=124	=124	=124	=124	=124	=124
1A	ex-	1c	-it,	1cc	-ta-
1c	-co-	1r	.	2g	.
.	.	.	.	[2cc	.
=125	=125	=125	=125	=125	=125
1A	-gi-	0r	.	4cc]	.
.	.	.	.	4dd	.
.	.	.	.	1ee	.
1c	-ta-	.	.	.	.
.	.	.	.	4dd	.
.	.	.	.	4cc	.
=126	=126	=126	=126	=126	=126
[0G	-re	2r	.	[0b	-re
.	.	2d	ex-	.	.
.	.	1g	-co-	.	.
=127	=127	=127	=127	=127	=127
0G]	.	1d	-gi-	0b]	.
.	.	1g	-ta-	.	.
=128	=128	=128	=128	=128	=128
1F	po-	2c	-re	1cc	po-
.	.	2f	po-	.	.
1G	-tu-	2d	-tu-	2.b	.
.	.	[2e	.	.	.
.	.	.	.	4a	.
=129	=129	=129	=129	=129	=129
0G	-it,	2e]	.	2b	.
.	.	4d	.	1cc	.
.	.	4c	.	.	.
.	.	1d	.	.	.
.	.	.	.	2b	-tu-
=130	=130	=130	=130	=130	=130
0r	.	1c	-it,	1cc	-it,
.	.	2r	.	1r	.
.	.	2c	ut	.	.
=131	=131	=131	=131	=131	=131
0r	.	2.g	vir-	[0dd	ut
.	.	4f	.	.	.
.	.	2d	.	.	.
.	.	2g	-go	.	.
=132	=132	=132	=132	=132	=132
0r	.	2f	ma-	1dd]	.
.	.	2d	.	.	.
.	.	2.f	.	[1cc	vir-
.	.	4e	.	.	.
=133	=133	=133	=133	=133	=133
0r	.	2c	.	0cc]	.
.	.	2f	.	.	.
.	.	2e	.	.	.
.	.	2c	.	.	.
=134	=134	=134	=134	=134	=134
[0G	ut	2.e	.	[0b	-go
.	.	4d	.	.	.
.	.	2B	.	.	.
.	.	2e	.	.	.
=135	=135	=135	=135	=135	=135
1G]	.	2d	.	1b]	.
.	.	2B	.	.	.
[1F	vir-	2.d	.	[1a	ma-
.	.	4c	.	.	.
=136	=136	=136	=136	=136	=136
0F]	.	2A	-ter	0a]	.
.	.	2d	es-	.	.
.	.	2c	.	.	.
.	.	2A	.	.	.
=137	=137	=137	=137	=137	=137
[0E	-go	2.c	.	1g	-ter,
.	.	4B	.	.	.
.	.	2G	.	1r	.
.	.	2c	.	.	.
=138	=138	=138	=138	=138	=138
1E]	.	2B	.	0r	.
.	.	2G	.	.	.
[1D	ma-	1A	-set,	.	.
=139	=139	=139	=139	=139	=139
0D]	.	2r	.	0r	.
.	.	1A	es-	.	.
.	.	4G	.	.	.
.	.	4F	.	.	.
=140	=140	=140	=140	=140	=140
[0C	-ter	1c	.	[0gg	ut
.	.	1G	-set,	.	.
=141	=141	=141	=141	=141	=141
1C]	.	1c	.	1gg]	.
[1D	es-	2r	.	[1ff	vir-
.	.	[2A	es-	.	.
=142	=142	=142	=142	=142	=142
1D]	.	2A]	.	0ff]	.
.	.	4G	.	.	.
.	.	4F	.	.	.
1D	-set,	2.f	.	.	.
.	.	4g	.	.	.
=143	=143	=143	=143	=143	=143
0r	.	2a	.	[0ee	-go
.	.	2.g	.	.	.
.	.	4f	.	.	.
.	.	4e	.	.	.
.	.	4d	.	.	.
=144	=144	=144	=144	=144	=144
2r	.	1e	.	1ee]	.
2C	ut	.	.	.	.
2.G	vir-	1B	-set,	[1dd	ma-
4F	.	.	.	.	.
=145	=145	=145	=145	=145	=145
2D	.	1r	.	0dd]	.
2G	-go	.	.	.	.
2F	ma-	2r	.	.	.
2D	.	2B	ma-	.	.
=146	=146	=146	=146	=146	=146
2.F	.	2A	-ter	[0cc	-ter
.	.	2.c	es-	.	.
4E	.	.	.	.	.
2C	-ter	.	.	.	.
.	.	4B	.	.	.
2F	es-	4c	.	.	.
.	.	4d	.	.	.
=147	=147	=147	=147	=147	=147
2E	.	2.e	.	1cc]	.
2C	.	.	.	.	.
.	.	4d	.	.	.
2.G	.	2B	.	[1dd	es-
.	.	[2d	.	.	.
4F	.	.	.	.	.
=148	=148	=148	=148	=148	=148
1D	.	4d]	.	1dd]	.
.	.	4c	.	.	.
.	.	2A	.	.	.
1G	.	1B	.	1dd	-set,
=149	=149	=149	=149	=149	=149
1F	.	1c	.	0ff	in-
1D	-set,	1d	-set,	.	.
=150	=150	=150	=150	=150	=150
1r	.	2r	.	1cc	-ta-
.	.	2f	in-	.	.
1F	in-	2c	-ta-	1a	-cta
.	.	2A	-cta,	.	.
=151	=151	=151	=151	=151	=151
1C	-ta-	2r	.	2r	.
.	.	2G	in-	1cc	ge-
1AA	-cta	1A	-ta-	.	.
.	.	.	.	2cc	-ne-
=152	=152	=152	=152	=152	=152
0r	.	2B	.	1dd	-ra-
.	.	2G	.	.	.
.	.	1d	-cta	1dd	-ret,
=153	=153	=153	=153	=153	=153
0r	.	2r	.	2r	.
.	.	1c	ge-	2.ee	ge-
.	.	.	.	4dd	.
.	.	2c	-ne-	4cc	.
.	.	.	.	4b	.
=154	=154	=154	=154	=154	=154
0r	.	1d	-ra-	2a	.
.	.	.	.	2b	-ne-
.	.	1d	-ret,	1a	-ra-
=155	=155	=155	=155	=155	=155
2r	.	2r	.	2g	-ret,
1C	ge-	2.e	ge-	2.cc	ge-
.	.	4d	.	4b	.
2C	-ne-	4c	.	4a	.
.	.	4B	.	4g	.
=156	=156	=156	=156	=156	=156
1D	-ra-	2A	.	2f	.
.	.	2B	-ne-	1g	-ne-
1D	-ret,	1A	-ra-	.	.
.	.	.	.	2f#i	-ra-
=157	=157	=157	=157	=157	=157
1r	.	0G	-ret,	0g	-ret,
2r	.	.	.	.	.
2G	quae	.	.	.	.
=158	=158	=158	=158	=158	=158
2A	et	0r	.	1r	.
1c	vir-	.	.	.	.
.	.	.	.	2r	.
2B	.	.	.	2g	quae
=159	=159	=159	=159	=159	=159
1A	-go,	0r	.	2a	et
.	.	.	.	1cc	vir-
1G	.	.	.	.	.
.	.	.	.	2b	.
=160	=160	=160	=160	=160	=160
2r	.	0r	.	1a	-go,
2D	quae	.	.	.	.
2E	et	.	.	1g	.
[2G	vir-	.	.	.	.
=161	=161	=161	=161	=161	=161
2G]	.	1r	.	2r	.
2F	.	.	.	2dd	quae
1E	-go	1G	quae	2ee	et
.	.	.	.	[2gg	vir-
=162	=162	=162	=162	=162	=162
1D	.	1A	et	2gg]	.
.	.	.	.	2ff	.
2.C	.	[1c	vir-	2ee	.
.	.	.	.	[2gg	.
4D	.	.	.	.	.
=163	=163	=163	=163	=163	=163
2E	.	1c]	.	2gg]	.
2F	.	.	.	4ff	.
.	.	.	.	4ee	.
1G	.	1B	.	[1dd	-go
=164	=164	=164	=164	=164	=164
1D	per-	0A	-go	1dd]	.
1F	.	.	.	1a	per-
=165	=165	=165	=165	=165	=165
1C	-man-	[0G	.	1cc	.
1C	-sit,	.	.	1g	-man-
=166	=166	=166	=166	=166	=166
1E	[per-	0G]	.	1g	-sit,
1G	.	.	.	1b	per-
=167	=167	=167	=167	=167	=167
1D	-man-	[0A	per-	1dd	.
1D	-sit,]	.	.	1a	-man-
=168	=168	=168	=168	=168	=168
1D	per-	0A]	.	0a	-sit,
1F	.	.	.	.	.
=169	=169	=169	=169	=169	=169
1C	-man-	0c	.	0r	.
1C	-sit,	.	.	.	.
=170	=170	=170	=170	=170	=170
1E	per-	1G	-man-	1r	.
1G	.	1G	-sit	1b	per-
=171	=171	=171	=171	=171	=171
1D	-man-	0r	.	1dd	.
[1D	-sit	.	.	1a	-man-
=172	=172	=172	=172	=172	=172
1D]	.	0r	.	1a	-sit
1r	.	.	.	2r	.
.	.	.	.	2cc	et
=173	=173	=173	=173	=173	=173
0r	.	0r	.	2b	ca-
.	.	.	.	2cc	-sti-
.	.	.	.	2dd	-ta-
.	.	.	.	2b	-tis
=174	=174	=174	=174	=174	=174
0r	.	0r	.	1cc	si-
.	.	.	.	1dd	-gil-
=175	=175	=175	=175	=175	=175
1r	.	1r	.	1g	-lum,
2r	.	2r	.	2r	.
2G	… non	2g	… non	2b	si-
=176	=176	=176	=176	=176	=176
2A	per-	2e	per-	1cc	-gil-
2F	-di-	2f	-di-	.	.
2G	-dit,	2d	-dit,	2b	.
2D	non	2d	non	[2a	.
=177	=177	=177	=177	=177	=177
2E	per-	2B	per-	4a]	.
.	.	.	.	4g	.
2C	-di-	2c	-di-	1g	.
2D	-dit,	1A	.	.	.
2F	non	.	.	2f#i	.
=178	=178	=178	=178	=178	=178
1E	per-	1G	-dit,	1g	-lum
1F	.	2r	.	1r	.
.	.	2c	non	.	.
=179	=179	=179	=179	=179	=179
1G	.	1B	per-	0r	.
1E	.	1c	-di-	.	.
=180	=180	=180	=180	=180	=180
1F	.	1d	-dit,	1r	.
1G	.	1B	non	2r	.
.	.	.	.	2dd	non
=181	=181	=181	=181	=181	=181
2C	.	1c	per-	1ee	.
2E	.	.	.	.	.
1F	.	1d	-di-	2a	.
.	.	.	.	2a	per-
=182	=182	=182	=182	=182	=182
1E	.	1G	-dit,	2b	.
.	.	.	.	2cc	.
1D	-di-	2r	.	2dd	.
.	.	2B	non	2dd	-di-
=183	=183	=183	=183	=183	=183
1C	-dit,	1c	per-	1g	-dit,
2r	.	1B	.	2r	.
2E	non	.	.	2g	non
=184	=184	=184	=184	=184	=184
4F	per-	0A	-di-	4a	per-
4E	.	.	.	4g	.
4D	.	.	.	4f	.
4C	.	.	.	4e	.
2D	.	.	.	2f	.
2D	-di-	.	.	2f	-di-
=185	=185	=185	=185	=185	=185
[0E	-dit,	0G	.	[0g	-dit,
=186	=186	=186	=186	=186	=186
1E]	.	[0Gl	-dit?	1g]	.
2r	.	.	.	2r	.
2E	non	.	.	2b	non
=187	=187	=187	=187	=187	=187
4E	per-	0G_	.	4b	per-
4D	.	.	.	4a	.
4C	.	.	.	4g	.
4BB	.	.	.	4f	.
2C	.	.	.	2g	.
2C	-di-	.	.	2g	-di-
=188	=188	=188	=188	=188	=188
00Gl	-dit?	00G]	.	00gl	-dit?
==	==	==	==	==	==
*-	*-	*-	*-	*-	*-
!!!system-decoration: [*]
!!!RDF**kern: i = editorial accidental
!!!RDF**kern: l = terminal long
!!!!PTL: <i> New Senfl Edition: Motets for Four Voices (N-V) </i>
!!!PPR: Hollitzer Verlag
!!!PC#: Denkmäler der Tonkunst in Österreich 163.2
!!!PDT: 2022
!!!PED: Scott Lee Edwards, Stefan Gasch, and Sonja Tröster
!!!YEC: Copyright 2022 Denkmäler der Tonkunst in Österreich
!!!YEM: CC-BY-NC 4.0 (https://creativecommons.org/licenses/by-nc/4.0/legalcode)
!!!EED: Benjamin Ory
!!!EEV: 2024/3/14
!!!verovio: header encoded
!!!header-left: @{PTL}\n@{PED}, eds.\n@{PC#} (@{PDT})&nbsp;\n
!!!header-right:
!!!header-center:
